X: 652
T: Yongbuneng zhu niangjia
%%abc-version 2.0
%%abcx-abcm2ps-target-version 5.9.1 (29 Sep 2008)
%%abc-creator hum2abc beta
%%abcx-conversion-date 2013/10/02 07:52:30
%%abc-edited-by Helmut Schaffrath
%%humdrum-veritas 320229115
%%humdrum-veritas-data 3421163958
%%continueall 1
%%barnumbers 0
L: 1/4
M: 2/4
K: G
BB/ A/ [I:setbarnb 1]| 
GE | 
BB/ A/ | 
GE | 
BB/ A/ | 
G3/A/ | 
B3/G/ | 
AA | 
EE/ G/ | 
AA | 
G/ E/D | 
D2 | 
B/ B/ B/ A/ | 
GE | 
B/ B/ B/ A/ | 
GE | 
BB/ A/ | 
G3/A/ | 
B3/G/ | 
AA | 
d3/G/ | 
AA | 
EE/ G/ | 
AA | 
G/ E/D | 
D2 |]  



